X:1
T:Title
%%score 1 { 2 | 3 }
L:1/8
Q:1/4=107
M:4/4
K:G
V:1 treble nm="Grand Piano, Soprano"
V:2 bass nm="Choir Pad, O Come, Sinner, Come"
V:3 bass 
V:1
 D2 [DG]2 [DG]>[DA] [GB]2 | [DG]2 [FA]2 [Fd]2 [GB]2- | [GB]2 [DG]2 [GB]2 [GB]2 | [FA]2 G6 | %4
w: By~William~Howard~Doane * * * *||||
 D2 [DG]2 [DG]>[DA] [GB]2 | [DG]2 [FA]2 [Fd]2 [GB]2- | [GB]2 [DG]2 [GB]2 [GB]2 | [FA]2 G6 | %8
w: ||||
 [Gd]2 [Gd]2 [GB]2 [Gd]2- | [Gd]2 G2 [GB]2 [FA]2- | [FA]2 [Ac]2 [^GB]2 [Ac]2- | %11
w: |||
 [Ac][GB] [GB]2 [FA]2 [FA]2 | [Ac]2 [GB]2 G2 [Gd]2- | [Gd]2 [GB]2 [=FG]2 [Ec]2- | %14
w: |||
 [Ec]2 [GB]2 [DG]2 [GB]2 | [DA]2 [DG]6- | [DG]2 z2 z4 |] %17
w: |||
V:2
 B,2 B,2 B,>C D2 | B,2[K:treble] D2 D2 D2- | D2 D2 D2 D2 | C2[K:bass] B,6 | %4
 B,2 B,2 B,>C[K:treble] D2 | B,2 D2 D2 D2- | D2 D2 D2 D2 | C2[K:bass] B,6 | B,2 B,2 D2 B,2- | %9
 B,2[K:treble] D2 D2 D2- | D2 D2 D2 D2- | DD D2 D2 D2 | D2 D2[K:bass] B,2 B,2- | B,2 D2 B,2 G,2- | %14
 G,2[K:treble] D2 B,2 D2 | C2 B,6- | B,2 z2 z4 |] %17
V:3
 G,2 G,2 G,>G, G,2 | G,2 D,2 D,2 G,2- | G,2 B,2 G,2 D,2 | D,2 [G,,G,]6 | G,2 G,2 G,>G, G,2 | %5
 G,2 D,2 D,2 G,2- | G,2 B,2 G,2 D,2 | D,2 [G,,G,]6 | G,2 G,2 G,2 G,2- | G,2 B,2 G,2 D,2- | %10
 D,2 D,2 D,2 D,2- | D,D, D,2 D,2 D,2 | F,2 G,2 G,2 G,2- | G,2 G,2 G,2 C,2- | C,2 D,2 D,2 D,2 | %15
 D,2 [G,,G,]6- | [G,,G,]2 z2 z4 |] %17

